X: 17907
T: Hour Before Dawn, The
R: reel
M: 4/4
K: Bminor
|:dBBA B2 Bc|dBBA F2EA|~D3E FAAF|Bdec decd|
BFBc dFde|f2 ed cdBA|GDAG FDDA|edcA edef:|
~G3 A ~B3 c|Bcde a2 ab|f2 ec decd|Bcde fdBA|
~G3 A ~B3 c|Bcde abfe|f2ec decd|Bcde fdBA|
~G3 A ~B3 c|Bcde a2 ab|f2 ec decd|Bcde fdef|
g2 fd ef e2|eddc BA (3Bcd|g2fd efa2|abgb afec|

